icons/1_Primary/Tumblr.svg

<svg width="1024" height="1024" viewBox="0 0 1024 1024" fill="none" xmlns="http://www.w3.org/2000/svg">
<g clip-path="url(#clip0_2_3747)">
<path d="M512 1024C794.77 1024 1024 794.77 1024 512C1024 229.23 794.77 0 512 0C229.23 0 0 229.23 0 512C0 794.77 229.23 1024 512 1024Z" fill="#54688C"/>
<path d="M206.169 565.34C183.949 565.34 167.389 553.91 167.389 526.56V482.76H147.199V459.05C169.419 453.28 178.709 434.16 179.779 417.6H202.849V455.2H229.769V482.76H202.849V520.9C202.849 532.33 208.619 536.28 217.849 536.28H230.849V565.34H206.169ZM288.739 566.62C301.339 566.62 315.869 561.17 323.739 551.45V565.34H365.289V541.73H354.759V455.2H304.559V479.2H318.869V520.9C318.869 524.21 316.089 538.21 297.289 538.21C285.219 538.21 282.969 530.95 282.969 521.76V455.2H245.999V523.2C245.999 540.23 253.699 566.62 288.739 566.62ZM378.579 565.34H439.359V541.73H426.999V500.6C426.999 494.6 432.129 482.33 447.719 482.33C460.319 482.33 462.889 490.02 462.889 499.1V541.72H450.579V565.33H510.929V541.73H498.329V500.6C498.329 494.6 502.919 482.33 518.629 482.33C531.339 482.33 534.439 490.02 534.439 499.1V541.72H522.359V565.33H582.359V541.73H570.109V503.27C570.109 480.62 561.559 453.92 527.809 453.92C511.149 453.92 497.469 461.82 491.699 471.55C484.439 460.55 473.429 453.92 456.979 453.92C443.979 453.92 429.629 459.47 421.979 470.05V455.2H376.339V479.2H391.079V541.69H378.579V565.34ZM659.519 566.62C690.279 566.62 706.839 543.55 706.839 508.94C706.839 475.72 691.459 453.94 660.159 453.94C649.159 453.94 638.159 458.11 631.529 463.23V417.6H580.689V441.42H595.429V565.34H629.289V555.62C637.724 562.788 648.45 566.691 659.519 566.62ZM651.829 539.81C641.039 539.81 630.459 532.97 630.459 511.4C630.459 485.4 642.959 480.85 651.609 480.85C661.609 480.85 670.519 488.97 670.519 509.16C670.519 538.21 657.489 539.17 651.829 539.81ZM713.469 565.34H774.679V541.73H761.679V417.6H711.219V441.42H725.999V541.72H713.499L713.469 565.34ZM788.029 565.34H848.169V541.73H835.889V511C835.889 490.07 850.629 485.47 861.889 485.47H876.889V453.92H864.729C851.059 453.92 838.449 460.54 832.789 471.12V455.2H786.999V479.2H800.249V541.69H787.999L788.029 565.34Z" fill="white"/>
</g>
<defs>
<clipPath id="clip0_2_3747">
<rect width="1024" height="1024" fill="white"/>
</clipPath>
</defs>
</svg>

<svg width="1024" height="1024" fill="none" xmlns="http://www.w3.org/2000/svg"><g clip-path="url(#a)"><path d="M512 1024c282.77 0 512-229.23 512-512S794.77 0 512 0 0 229.23 0 512s229.23 512 512 512Z" fill="#54688C"/><path d="M206.169 565.34c-22.22 0-38.78-11.43-38.78-38.78v-43.8h-20.19v-23.71c22.22-5.77 31.51-24.89 32.58-41.45h23.07v37.6h26.92v27.56h-26.92v38.14c0 11.43 5.77 15.38 15 15.38h13v29.06h-24.68Zm82.57 1.28c12.6 0 27.13-5.45 35-15.17v13.89h41.55v-23.61h-10.53V455.2h-50.2v24h14.31v41.7c0 3.31-2.78 17.31-21.58 17.31-12.07 0-14.32-7.26-14.32-16.45V455.2h-36.97v68c0 17.03 7.7 43.42 42.74 43.42Zm89.84-1.28h60.78v-23.61h-12.36V500.6c0-6 5.13-18.27 20.72-18.27 12.6 0 15.17 7.69 15.17 16.77v42.62h-12.31v23.61h60.35v-23.6h-12.6V500.6c0-6 4.59-18.27 20.3-18.27 12.71 0 15.81 7.69 15.81 16.77v42.62h-12.08v23.61h60v-23.6h-12.25v-38.46c0-22.65-8.55-49.35-42.3-49.35-16.66 0-30.34 7.9-36.11 17.63-7.26-11-18.27-17.63-34.72-17.63-13 0-27.35 5.55-35 16.13V455.2h-45.64v24h14.74v62.49h-12.5v23.65Zm280.94 1.28c30.76 0 47.32-23.07 47.32-57.68 0-33.22-15.38-55-46.68-55-11 0-22 4.17-28.63 9.29V417.6h-50.84v23.82h14.74v123.92h33.86v-9.72a46.224 46.224 0 0 0 30.23 11Zm-7.69-26.81c-10.79 0-21.37-6.84-21.37-28.41 0-26 12.5-30.55 21.15-30.55 10 0 18.91 8.12 18.91 28.31 0 29.05-13.03 30.01-18.69 30.65Zm61.64 25.53h61.21v-23.61h-13V417.6h-50.46v23.82h14.78v100.3h-12.5l-.03 23.62Zm74.56 0h60.14v-23.61h-12.28V511c0-20.93 14.74-25.53 26-25.53h15v-31.55h-12.16c-13.67 0-26.28 6.62-31.94 17.2V455.2h-45.79v24h13.25v62.49h-12.25l.03 23.65Z" fill="#fff"/></g><defs><clipPath id="a"><path fill="#fff" d="M0 0h1024v1024H0z"/></clipPath></defs></svg>
